pictures/building.svg

<svg width="24" height="24" viewBox="0 0 24 24" fill="none" xmlns="http://www.w3.org/2000/svg">
  <path d="M13 11H17.8C18.9201 11 19.4802 11 19.908 11.218C20.2843 11.4097 20.5903 11.7157 20.782 12.092C21 12.5198 21 13.0799 21 14.2V21M13 21V6.2C13 5.0799 13 4.51984 12.782 4.09202C12.5903 3.71569 12.2843 3.40973 11.908 3.21799C11.4802 3 10.9201 3 9.8 3H6.2C5.0799 3 4.51984 3 4.09202 3.21799C3.71569 3.40973 3.40973 3.71569 3.21799 4.09202C3 4.51984 3 5.0799 3 6.2V21M22 21H2M6.5 7H9.5M6.5 11H9.5M6.5 15H9.5" stroke="#D92E15" stroke-width="2" stroke-linecap="round" stroke-linejoin="round"/>
  </svg>

<svg width="24" height="24" fill="none" xmlns="http://www.w3.org/2000/svg"><path d="M13 11h4.8c1.12 0 1.68 0 2.108.218a2 2 0 0 1 .874.874C21 12.52 21 13.08 21 14.2V21m-8 0V6.2c0-1.12 0-1.68-.218-2.108a2 2 0 0 0-.874-.874C11.48 3 10.92 3 9.8 3H6.2c-1.12 0-1.68 0-2.108.218a2 2 0 0 0-.874.874C3 4.52 3 5.08 3 6.2V21m19 0H2M6.5 7h3m-3 4h3m-3 4h3" stroke="#D92E15" stroke-width="2" stroke-linecap="round" stroke-linejoin="round"/></svg>
